X:241
T:Hommage à Guy Langlois
M:C|
C:© Paul Gitlitz 2011
K:D
"D"DFAd fded|FAdf adfa|"Bm"bgaf "G"gefd|"E7"edcB "A7"AGFE|!
"D"DFAd fded|FAdf afdf|"G"gafg "D"efde|"A7"cdec "D"d4:|!
K:G
|:"G"gBAB "Am"ecea|"D"fdef  "G"gfed|"G"gBAB "C"gcBc|"D"fgaf "G"g4|!
"G"gBAB "C"gcBc|"D"afdf "G"gabg|"G"gBAB "Am"ecea|"D"fgab "G"g4:|]
